app/src/assets/image/logos/gimp.svg

<?xml version="1.0" encoding="UTF-8"?>
<svg width="47px" height="35px" viewBox="0 0 47 35" version="1.1" xmlns="http://www.w3.org/2000/svg" xmlns:xlink="http://www.w3.org/1999/xlink">
    <!-- Generator: Sketch 43.2 (39069) - http://www.bohemiancoding.com/sketch -->
    <title>gimp</title>
    <desc>Created with Sketch.</desc>
    <defs>
        <radialGradient cx="50%" cy="50.0001212%" fx="50%" fy="50.0001212%" r="50%" gradientTransform="translate(0.500000,0.500001),scale(0.434931,1.000000),translate(-0.500000,-0.500001)" id="radialGradient-1">
            <stop stop-color="#000000" offset="0%"></stop>
            <stop stop-color="#000000" stop-opacity="0" offset="100%"></stop>
        </radialGradient>
        <radialGradient cx="35.2457212%" cy="49.3694575%" fx="35.2457212%" fy="49.3694575%" r="57.2415724%" gradientTransform="translate(0.352457,0.493695),scale(0.817935,1.000000),translate(-0.352457,-0.493695)" id="radialGradient-2">
            <stop stop-color="#857C63" offset="0%"></stop>
            <stop stop-color="#221F19" offset="100%"></stop>
        </radialGradient>
        <linearGradient x1="88.8679377%" y1="26.0261603%" x2="11.399873%" y2="71.9475064%" id="linearGradient-3">
            <stop stop-color="#000000" offset="0%"></stop>
            <stop stop-color="#000000" stop-opacity="0" offset="100%"></stop>
        </linearGradient>
        <linearGradient x1="28.2889598%" y1="31.2101583%" x2="107.678431%" y2="150.928315%" id="linearGradient-4">
            <stop stop-color="#FFFFFF" offset="0%"></stop>
            <stop stop-color="#FFFFFF" stop-opacity="0" offset="100%"></stop>
        </linearGradient>
        <radialGradient cx="49.999922%" cy="14.8236102%" fx="49.999922%" fy="14.8236102%" r="55.2378273%" gradientTransform="translate(0.499999,0.148236),scale(1.000000,0.999749),translate(-0.499999,-0.148236)" id="radialGradient-5">
            <stop stop-color="#FFFFFF" offset="0%"></stop>
            <stop stop-color="#B9B9B0" offset="100%"></stop>
        </radialGradient>
        <radialGradient cx="49.1388979%" cy="28.0768493%" fx="49.1388979%" fy="28.0768493%" r="55.7722991%" gradientTransform="translate(0.491389,0.280768),scale(1.000000,0.710145),translate(-0.491389,-0.280768)" id="radialGradient-6">
            <stop stop-color="#5B676B" offset="0%"></stop>
            <stop stop-color="#141718" offset="100%"></stop>
        </radialGradient>
        <linearGradient x1="52.9691435%" y1="11.9128593%" x2="48.108113%" y2="92.9753086%" id="linearGradient-7">
            <stop stop-color="#FFFFFF" offset="0%"></stop>
            <stop stop-color="#FFFFFF" stop-opacity="0" offset="100%"></stop>
        </linearGradient>
        <radialGradient cx="49.999922%" cy="14.8236102%" fx="49.999922%" fy="14.8236102%" r="55.2378273%" gradientTransform="translate(0.499999,0.148236),scale(1.000000,0.999749),translate(-0.499999,-0.148236)" id="radialGradient-8">
            <stop stop-color="#FFFFFF" offset="0%"></stop>
            <stop stop-color="#B9B9B0" offset="100%"></stop>
        </radialGradient>
        <linearGradient x1="51.2877007%" y1="74.271994%" x2="8.39512725%" y2="39.2543591%" id="linearGradient-9">
            <stop stop-color="#6E3D09" offset="0%"></stop>
            <stop stop-color="#EA8113" offset="24.242425%"></stop>
            <stop stop-color="#5C3307" offset="62.121212%"></stop>
            <stop stop-color="#E07C12" offset="100%"></stop>
        </linearGradient>
        <linearGradient x1="28.3890262%" y1="47.4974245%" x2="59.0664846%" y2="75.0544587%" id="linearGradient-10">
            <stop stop-color="#BDBDBD" offset="0%"></stop>
            <stop stop-color="#E2E2E2" offset="33.333334%"></stop>
            <stop stop-color="#A3A3A3" offset="66.666669%"></stop>
            <stop stop-color="#DDDDDD" offset="100%"></stop>
        </linearGradient>
        <radialGradient cx="71.1301134%" cy="22.3832434%" fx="71.1301134%" fy="22.3832434%" r="37.9181632%" gradientTransform="translate(0.711301,0.223832),scale(0.645535,1.000000),translate(-0.711301,-0.223832)" id="radialGradient-11">
            <stop stop-color="#696969" offset="0%"></stop>
            <stop stop-color="#000000" offset="100%"></stop>
        </radialGradient>
        <linearGradient x1="108.1636%" y1="52.0879947%" x2="24.9446983%" y2="123.852616%" id="linearGradient-12">
            <stop stop-color="#FFFFFF" offset="0%"></stop>
            <stop stop-color="#FFFFFF" stop-opacity="0" offset="100%"></stop>
        </linearGradient>
        <linearGradient x1="57.8947417%" y1="60.8505516%" x2="24.2914917%" y2="75.0018397%" id="linearGradient-13">
            <stop stop-color="#000000" offset="0%"></stop>
            <stop stop-color="#000000" stop-opacity="0" offset="100%"></stop>
        </linearGradient>
    </defs>
    <g id="Page-1" stroke="none" stroke-width="1" fill="none" fill-rule="evenodd">
        <g id="gimp" transform="translate(-1.000000, 0.000000)">
            <path d="M42.375,23.9374875 C42.3750001,26.7732823 38.8965698,29.3936647 33.2500001,30.8115621 C27.6034304,32.2294595 20.6465696,32.2294595 14.9999999,30.8115621 C9.35343023,29.3936647 5.8749999,26.7732823 5.875,23.9374875 C5.87499986,21.1016927 9.35343018,18.4813103 14.9999999,17.0634129 C20.6465696,15.6455155 27.6034304,15.6455155 33.2500001,17.0634129 C38.8965698,18.4813103 42.3750001,21.1016927 42.375,23.9374875 L42.375,23.9374875 Z" id="path6490" fill="url(#radialGradient-1)"></path>
            <path d="M11.374369,4.467884 C11.374369,4.467884 14.248878,10.395518 20.973611,10.228291 C35.066126,9.874738 37.53732,2.523341 37.890873,1.4626804 C38.244427,0.4020202 38.785407,0.5626825 38.91048,1.542947 C43.506674,43.262247 7.0135488,25.362123 5.7175144,18.256467 C12.965359,16.135147 11.197592,12.069282 11.197592,12.069282 L11.374369,4.467884 Z" id="path4323" stroke="#2E3436" stroke-width="0.9999997" fill="url(#radialGradient-2)"></path>
            <path d="M16.73779,22.066049 C23.47669,23.413886 26.908481,22.164142 28.916965,20.613273 C28.386635,19.928263 27.480655,19.176962 27.480655,19.176962 C27.480655,19.176962 29.833972,19.830904 30.662635,20.900535 C31.488925,21.967103 30.969443,22.624242 30.753196,23.988905 C30.271785,22.790306 29.373215,22.340813 29.251562,21.864573 C27.445294,24.3615 22.94512,24.257773 16.73779,22.066049 Z" id="path6480" fill="url(#linearGradient-3)"></path>
            <path d="M37.96875,3.84375 C37.406772,4.770645 36.562258,5.876916 35.28125,6.9375 C32.649332,9.116542 28.230687,11.099847 21,11.28125 C16.775627,11.386299 14.047259,9.347101 12.375,7.53125 L12.25,12 C12.386107,12.418802 12.665455,13.390498 12.1875,14.71875 C11.673186,16.148046 10.032986,17.610113 7.21875,18.71875 C7.4690804,19.240783 7.7142345,19.76237 8.46875,20.5 C9.4967003,21.504945 10.9257833,22.588049 12.625,23.5625 C16.023433,25.511402 20.426583,27.055712 24.53125,27.125 C28.635917,27.194288 32.388376,25.89045 34.96875,22.125 C37.347494,18.653782 38.651223,12.777057 37.96875,3.84375 Z" id="path8520" stroke="url(#linearGradient-4)" stroke-width="0.9999997" opacity="0.18539327"></path>
            <path d="M18.7106368,13.3951168 C18.711001,14.8479531 17.9361313,16.1905851 16.6779988,16.9171084 C15.4198663,17.6436318 13.869678,17.6436318 12.6115455,16.9171084 C11.353413,16.1905851 10.5785432,14.8479531 10.5789075,13.3951168 C10.5785432,11.9422805 11.353413,10.5996485 12.6115455,9.87312515 C13.869678,9.14660182 15.4198663,9.14660182 16.6779988,9.87312515 C17.9361313,10.5996485 18.711001,11.9422805 18.7106368,13.3951168 Z" id="path4357" stroke="#888A85" stroke-width="0.99999986" fill="url(#radialGradient-5)"></path>
            <path d="M11.4298378,17.4609762 C11.4298378,20.8292496 9.49076928,23.5597746 7.09880707,23.5597746 C4.70684487,23.5597746 2.76777638,20.8292496 2.76777638,17.4609762 C2.76777638,14.0927028 4.70684487,11.3621778 7.09880707,11.3621778 C9.49076928,11.3621778 11.4298378,14.0927028 11.4298378,17.4609762 Z" id="path5198" stroke="#000000" stroke-width="1.00000009" fill="url(#radialGradient-6)" transform="translate(7.098807, 17.460976) rotate(-35.807849) translate(-7.098807, -17.460976) "></path>
            <path d="M17.5531525,13.9974619 C17.5533588,14.6969963 17.1802802,15.3434811 16.5744999,15.6933079 C15.9687197,16.0431347 15.2223081,16.0431347 14.6165279,15.6933079 C14.0107477,15.3434811 13.637669,14.6969963 13.6378754,13.9974619 C13.637669,13.2979274 14.0107477,12.6514426 14.6165279,12.3016158 C15.2223081,11.951789 15.9687197,11.951789 16.5744999,12.3016158 C17.1802802,12.6514426 17.5533588,13.2979274 17.5531525,13.9974619 L17.5531525,13.9974619 Z" id="path4359" stroke="#000000" stroke-width="0.999999932" fill="#2E3436"></path>
            <path d="M6.91697502,12.3884738 C6.11872581,12.3884738 5.3638446,12.8346448 4.72947499,13.7322238 C4.09510539,14.6298028 3.63572498,15.9664278 3.63572498,17.4509739 C3.63572498,18.9355199 4.09510539,20.2721449 4.72947499,21.1697239 C5.3638446,22.0673029 6.11872611,22.5134739 6.91697502,22.5134739 C7.71522422,22.5134739 8.49425893,22.0370849 9.13572504,21.1384739 C9.77719115,20.2398629 10.229475,18.9322879 10.229475,17.4509739 C10.229475,15.9696598 9.77719125,14.6620848 9.13572504,13.7634738 C8.49425883,12.8648628 7.71522392,12.3884738 6.91697502,12.3884738 Z" id="path6450" stroke="url(#linearGradient-7)" stroke-width="1.00000013" opacity="0.28089887" transform="translate(6.932600, 17.450974) rotate(-36.832736) translate(-6.932600, -17.450974) "></path>
            <path d="M6.833631,15.251263 C6.83378124,16.0092579 6.49687962,16.7097511 5.94986892,17.0888006 C5.40285822,17.4678501 4.72886988,17.4678501 4.18185918,17.0888006 C3.63484848,16.7097511 3.29794686,16.0092579 3.2980971,15.251263 C3.29794686,14.4932681 3.63484848,13.7927749 4.18185918,13.4137254 C4.72886988,13.0346759 5.40285822,13.0346759 5.94986892,13.4137254 C6.49687962,13.7927749 6.83378124,14.4932681 6.833631,15.251263 Z" id="path6446" fill="#FFFFFF"></path>
            <path d="M16.1978433,13.0939202 C16.1978433,13.8424245 15.5910607,14.4492071 14.8425564,14.4492071 C14.0940521,14.4492071 13.4872696,13.8424245 13.4872696,13.0939202 C13.4872696,12.3454159 14.0940521,11.7386333 14.8425564,11.7386333 C15.5910607,11.7386333 16.1978433,12.3454159 16.1978433,13.0939202 Z" id="path4361" fill="#FFFFFF"></path>
            <path d="M27.814626,13.8370535 C27.8150536,15.5425567 26.905424,17.1186897 25.4284861,17.9715647 C23.9515482,18.8244398 22.1317623,18.8244398 20.6548244,17.9715647 C19.1778865,17.1186897 18.2682569,15.5425567 18.2686845,13.8370535 C18.2682569,12.1315503 19.1778865,10.5554173 20.6548244,9.70254228 C22.1317623,8.84966722 23.9515482,8.84966722 25.4284861,9.70254228 C26.905424,10.5554173 27.8150536,12.1315503 27.814626,13.8370535 Z" id="path6462" stroke="#888A85" stroke-width="0.999999675" fill="url(#radialGradient-8)"></path>
            <path d="M26.455847,14.544157 C26.4560893,15.3653495 26.0181274,16.1242662 25.3069943,16.5349324 C24.5958611,16.9455986 23.7196389,16.9455986 23.0085057,16.5349324 C22.2973726,16.1242662 21.8594107,15.3653495 21.859653,14.544157 C21.8594107,13.7229645 22.2973726,12.9640478 23.0085057,12.5533816 C23.7196389,12.1427154 24.5958611,12.1427154 25.3069943,12.5533816 C26.0181274,12.9640478 26.4560893,13.7229645 26.455847,14.544157 L26.455847,14.544157 Z" id="path6464" stroke="#000000" stroke-width="0.9999997" fill="#2E3436"></path>
            <path d="M24.8648553,13.4834965 C24.8648553,14.3621762 24.1525447,15.0744868 23.273865,15.0744868 C22.3951853,15.0744868 21.6828747,14.3621762 21.6828747,13.4834965 C21.6828747,12.6048168 22.3951853,11.8925062 23.273865,11.8925062 C24.1525447,11.8925062 24.8648553,12.6048168 24.8648553,13.4834965 Z" id="path6466" fill="#FFFFFF"></path>
            <g id="g8463" transform="translate(37.575896, 28.152202) rotate(-106.414712) translate(-37.575896, -28.152202) translate(28.431233, 20.226827)">
                <path d="M9.19985272,7.95314858 L10.7077459,9.36312356 C14.1002058,6.76975925 17.6552828,1.19414565 17.6552828,1.19414565 C18.4585154,0.282763189 17.6077631,-0.330161035 16.7754009,0.219560763 C16.7754009,0.219560763 11.5038632,4.33054063 9.19985272,7.95314858 Z" id="path6937" stroke="#673907" stroke-width="1.00000064" fill="url(#linearGradient-9)" fill-rule="nonzero" stroke-linecap="round"></path>
                <path d="M6.32009421,11.7108159 L7.23306488,12.4967773 L10.6847753,9.50259878 L10.7965682,9.21572948 L11.2413667,9.20848894 C11.0635538,8.57344288 10.0458487,7.42692361 9.28379341,7.42692361 L9.31712835,7.86996222 L9.04482426,8.0244164 L6.32009421,11.7108159 Z" id="path6935" stroke="#888A85" stroke-width="1.00000064" fill="url(#linearGradient-10)" fill-rule="nonzero" stroke-linecap="round"></path>
                <path d="M9.02217719,9.90743668 L7.24813975,12.0478857" id="path6985" stroke="#FFFFFF" stroke-width="1.00000074" stroke-linecap="round" stroke-linejoin="round"></path>
                <path d="M0.267752489,15.7572038 C4.51248488,15.7572038 7.73387785,16.2626923 8.3437521,13.1744509 C8.83522654,10.6857556 5.41317853,9.4932696 3.71741819,11.7150192 C2.08386554,13.855265 0.267752489,15.7572038 0.267752489,15.7572038 Z" id="path6933" fill="url(#radialGradient-11)" fill-rule="nonzero"></path>
                <path d="M7.97425481,13.2614111 C7.97436109,13.6371778 7.77395301,13.9844459 7.44854726,14.1723599 C7.1231415,14.360274 6.72219439,14.360274 6.39678863,14.1723599 C6.07138287,13.9844459 5.87097479,13.6371778 5.87108107,13.2614111 C5.87097479,12.8856445 6.07138287,12.5383763 6.39678863,12.3504623 C6.72219439,12.1625483 7.1231415,12.1625483 7.44854726,12.3504623 C7.77395301,12.5383763 7.97436109,12.8856445 7.97425481,13.2614111 Z" id="path6971" fill="#FFFFFF" fill-rule="nonzero" opacity="0.52777782" transform="translate(6.922668, 13.261411) rotate(0.000000) translate(-6.922668, -13.261411) "></path>
                <path d="M10.7054239,9.28594413 C10.7054956,9.53949303 10.5702701,9.77381256 10.3507022,9.90060772 C10.1311344,10.0274029 9.86059496,10.0274029 9.64102712,9.90060772 C9.42145927,9.77381256 9.28623374,9.53949303 9.28630545,9.28594413 C9.28623374,9.03239523 9.42145927,8.7980757 9.64102712,8.67128055 C9.86059496,8.54448539 10.1311344,8.54448539 10.3507022,8.67128055 C10.5702701,8.7980757 10.7054956,9.03239523 10.7054239,9.28594413 Z" id="path6983" fill="#FFFFFF" fill-rule="nonzero" transform="translate(9.995865, 9.285944) rotate(-0.000000) translate(-9.995865, -9.285944) "></path>
                <path d="M3.03045077,15.001004 C3.03045077,15.001004 4.5429862,15.0393303 5.51639211,14.4271276 C5.86078054,14.2105319 6.13244735,14.6913006 5.71709471,14.8690656 C4.81994472,15.2530325 3.03045077,15.001004 3.03045077,15.001004 Z" id="path1571" fill="url(#linearGradient-12)" fill-rule="nonzero" opacity="0.42777776"></path>
            </g>
            <path d="M24.003067,23.736544 C25.500439,23.879636 26.852696,23.464331 27.41496,23.262497 C27.513185,22.707111 27.951512,21.64124 29.461048,21.571029 L28.930718,20.642952 C28.930718,20.642952 26.964077,21.990873 24.864854,22.388621 L24.003067,23.736544 Z" id="path8532" fill="url(#linearGradient-13)"></path>
        </g>
    </g>
</svg>

<svg width="47" height="35" viewBox="0 0 47 35" xmlns="http://www.w3.org/2000/svg"><title>gimp</title><defs><radialGradient fx="50%" fy="50%" gradientTransform="matrix(.43493 0 0 1 .283 0)" id="a"><stop offset="0%"/><stop stop-opacity="0" offset="100%"/></radialGradient><radialGradient cx="35.246%" cy="49.369%" fx="35.246%" fy="49.369%" r="57.242%" gradientTransform="matrix(.81793 0 0 1 .064 0)" id="b"><stop stop-color="#857C63" offset="0%"/><stop stop-color="#221F19" offset="100%"/></radialGradient><linearGradient x1="88.868%" y1="26.026%" x2="11.4%" y2="71.948%" id="c"><stop offset="0%"/><stop stop-opacity="0" offset="100%"/></linearGradient><linearGradient x1="28.289%" y1="31.21%" x2="107.678%" y2="150.928%" id="d"><stop stop-color="#FFF" offset="0%"/><stop stop-color="#FFF" stop-opacity="0" offset="100%"/></linearGradient><radialGradient cy="14.824%" fx="50%" fy="14.824%" r="55.238%" gradientTransform="scale(1 .99975)" id="e"><stop stop-color="#FFF" offset="0%"/><stop stop-color="#B9B9B0" offset="100%"/></radialGradient><radialGradient cx="49.139%" cy="28.077%" fx="49.139%" fy="28.077%" r="55.772%" gradientTransform="matrix(1 0 0 .71015 0 .081)" id="f"><stop stop-color="#5B676B" offset="0%"/><stop stop-color="#141718" offset="100%"/></radialGradient><linearGradient x1="52.969%" y1="11.913%" x2="48.108%" y2="92.975%" id="g"><stop stop-color="#FFF" offset="0%"/><stop stop-color="#FFF" stop-opacity="0" offset="100%"/></linearGradient><radialGradient cy="14.824%" fx="50%" fy="14.824%" r="55.238%" gradientTransform="scale(1 .99975)" id="h"><stop stop-color="#FFF" offset="0%"/><stop stop-color="#B9B9B0" offset="100%"/></radialGradient><linearGradient x1="51.288%" y1="74.272%" x2="8.395%" y2="39.254%" id="i"><stop stop-color="#6E3D09" offset="0%"/><stop stop-color="#EA8113" offset="24.242%"/><stop stop-color="#5C3307" offset="62.121%"/><stop stop-color="#E07C12" offset="100%"/></linearGradient><linearGradient x1="28.389%" y1="47.497%" x2="59.066%" y2="75.054%" id="j"><stop stop-color="#BDBDBD" offset="0%"/><stop stop-color="#E2E2E2" offset="33.333%"/><stop stop-color="#A3A3A3" offset="66.667%"/><stop stop-color="#DDD" offset="100%"/></linearGradient><radialGradient cx="71.13%" cy="22.383%" fx="71.13%" fy="22.383%" r="37.918%" gradientTransform="matrix(.64553 0 0 1 .252 0)" id="k"><stop stop-color="#696969" offset="0%"/><stop offset="100%"/></radialGradient><linearGradient x1="108.164%" y1="52.088%" x2="24.945%" y2="123.853%" id="l"><stop stop-color="#FFF" offset="0%"/><stop stop-color="#FFF" stop-opacity="0" offset="100%"/></linearGradient><linearGradient x1="57.895%" y1="60.851%" x2="24.291%" y2="75.002%" id="m"><stop offset="0%"/><stop stop-opacity="0" offset="100%"/></linearGradient></defs><g fill="none" fill-rule="evenodd"><path d="M42.375 23.937c0 2.836-3.478 5.457-9.125 6.875-5.647 1.417-12.603 1.417-18.25 0-5.647-1.418-9.125-4.039-9.125-6.875 0-2.835 3.478-5.456 9.125-6.874 5.647-1.417 12.603-1.417 18.25 0 5.647 1.418 9.125 4.039 9.125 6.874z" fill="url(#a)" transform="translate(-1)"/><path d="M11.374 4.468s2.875 5.928 9.6 5.76c14.092-.353 16.563-7.705 16.917-8.765.353-1.061.894-.9 1.02.08 4.596 41.72-31.897 23.82-33.193 16.713 7.247-2.12 5.48-6.187 5.48-6.187l.176-7.601z" stroke="#2E3436" fill="url(#b)" transform="translate(-1)"/><path d="M16.738 22.066c6.739 1.348 10.17.098 12.179-1.453-.53-.685-1.436-1.436-1.436-1.436s2.353.654 3.182 1.724c.826 1.066.306 1.723.09 3.088-.481-1.199-1.38-1.648-1.501-2.124-1.807 2.497-6.307 2.393-12.514.201z" fill="url(#c)" transform="translate(-1)"/><path d="M37.969 3.844a12.252 12.252 0 0 1-2.688 3.094C32.65 9.117 28.231 11.1 21 11.28c-4.224.105-6.953-1.934-8.625-3.75L12.25 12c.136.419.415 1.39-.063 2.719-.514 1.429-2.154 2.891-4.968 4 .25.522.495 1.043 1.25 1.781 1.028 1.005 2.457 2.088 4.156 3.063 3.398 1.948 7.802 3.493 11.906 3.562 4.105.07 7.857-1.235 10.438-5 2.378-3.471 3.682-9.348 3-18.281z" stroke="url(#d)" opacity=".185" transform="translate(-1)"/><path d="M18.71 13.395a4.066 4.066 0 1 1-8.131.002 4.066 4.066 0 0 1 8.132-.002z" stroke="#888A85" fill="url(#e)" transform="translate(-1)"/><path d="M11.43 17.461c0 3.368-1.94 6.099-4.331 6.099-2.392 0-4.331-2.73-4.331-6.099 0-3.368 1.939-6.099 4.33-6.099 2.393 0 4.332 2.73 4.332 6.099z" stroke="#000" fill="url(#f)" transform="rotate(-35.808 6.599 19.009)"/><path d="M16.553 13.997a1.958 1.958 0 1 1-3.915.002 1.958 1.958 0 0 1 3.915-.002z" stroke="#000" fill="#2E3436"/><path d="M6.917 12.388c-.798 0-1.553.447-2.188 1.344-.634.898-1.093 2.234-1.093 3.719 0 1.485.46 2.821 1.093 3.719.635.897 1.39 1.343 2.188 1.343.798 0 1.577-.476 2.219-1.375.641-.898 1.093-2.206 1.093-3.687 0-1.481-.452-2.789-1.093-3.688-.642-.898-1.42-1.375-2.219-1.375z" stroke="url(#g)" opacity=".281" transform="rotate(-36.833 6.433 18.953)"/><path d="M5.834 15.251c0 .758-.337 1.459-.884 1.838a1.517 1.517 0 0 1-1.768 0c-.547-.38-.884-1.08-.884-1.838s.337-1.458.884-1.837a1.517 1.517 0 0 1 1.768 0c.547.379.884 1.08.884 1.837zm9.364-2.157a1.355 1.355 0 1 1-2.71 0 1.355 1.355 0 0 1 2.71 0z" fill="#FFF"/><path d="M27.815 13.837a4.773 4.773 0 1 1-9.546.002 4.773 4.773 0 0 1 9.546-.002z" stroke="#888A85" fill="url(#h)" transform="translate(-1)"/><path d="M25.456 14.544a2.298 2.298 0 1 1-4.596.002 2.298 2.298 0 0 1 4.596-.002z" stroke="#000" fill="#2E3436"/><path d="M23.865 13.483a1.591 1.591 0 1 1-3.182 0 1.591 1.591 0 0 1 3.182 0z" fill="#FFF"/><path d="M9.2 7.953l1.508 1.41c3.392-2.593 6.947-8.169 6.947-8.169.804-.911-.047-1.524-.88-.974 0 0-5.271 4.11-7.575 7.733z" stroke="#673907" fill="url(#i)" fill-rule="nonzero" stroke-linecap="round" transform="rotate(-106.415 30.424 7.78)"/><path d="M6.32 11.71l.913.787 3.452-2.994.112-.287.444-.008c-.177-.635-1.195-1.781-1.957-1.781l.033.443-.272.154-2.725 3.687z" stroke="#888A85" fill="url(#j)" fill-rule="nonzero" stroke-linecap="round" transform="rotate(-106.415 30.424 7.78)"/><path d="M38.512 27.71l2.554 1.096" stroke="#FFF" stroke-linecap="round" stroke-linejoin="round"/><path d="M.268 15.757c4.244 0 7.466.506 8.076-2.583.491-2.488-2.93-3.68-4.627-1.459a54.934 54.934 0 0 1-3.45 4.042z" fill="url(#k)" fill-rule="nonzero" transform="rotate(-106.415 30.424 7.78)"/><path d="M42.025 27.767a1.052 1.052 0 1 1 .595 2.017 1.052 1.052 0 0 1-.595-2.017z" fill="#FFF" fill-rule="nonzero" opacity=".528"/><path d="M37.44 26.27a.71.71 0 1 1 .401 1.362.71.71 0 0 1-.401-1.361z" fill="#FFF" fill-rule="nonzero"/><path d="M3.03 15.001s1.513.038 2.486-.574c.345-.216.616.264.201.442-.897.384-2.687.132-2.687.132z" fill="url(#l)" fill-rule="nonzero" opacity=".428" transform="rotate(-106.415 30.424 7.78)"/><path d="M24.003 23.737c1.497.143 2.85-.273 3.412-.475.098-.555.537-1.62 2.046-1.691l-.53-.928s-1.967 1.348-4.066 1.746l-.862 1.348z" fill="url(#m)" transform="translate(-1)"/></g></svg>
